build/assets/img/account-icon.svg

<svg width="45" height="45" viewBox="0 0 45 45" fill="none" xmlns="http://www.w3.org/2000/svg">
<g clip-path="url(#clip0)">
<path d="M42 6V7.5C42.8284 7.5 43.5 8.17163 43.5 9V31.5H42V33H43.5V34.5C43.5 35.3284 42.8284 36 42 36V37.5C43.6567 37.5 45 36.1567 45 34.5V9C45 7.34326 43.6567 6 42 6Z" fill="white"/>
<path d="M3 37.5H17.7418L15.9419 43.5H14.25V45H30.75V43.5H17.5082L19.3081 37.5H20.25V36H3C2.17163 36 1.5 35.3284 1.5 34.5V33H25.5V31.5H1.5V9C1.5 8.17163 2.17163 7.5 3 7.5V6C1.34326 6 0 7.34326 0 9V34.5C0 36.1567 1.34326 37.5 3 37.5Z" fill="white"/>
<path d="M6 3C6 2.17163 6.67163 1.5 7.5 1.5H37.5C38.3284 1.5 39 2.17163 39 3V30H40.5V3C40.5 1.34326 39.1567 0 37.5 0H7.5C5.84326 0 4.5 1.34326 4.5 3V30H6V3Z" fill="white"/>
<path d="M7.5 3H9V4.5H7.5V3Z" fill="white"/>
<path d="M10.5 3H12V4.5H10.5V3Z" fill="white"/>
<path d="M13.5 3H15V4.5H13.5V3Z" fill="white"/>
<path d="M13.5 28.5H25.5V27H13.5C12.2574 27 11.25 25.9925 11.25 24.75C11.25 23.5074 12.2574 22.5 13.5 22.5H31.5C32.4097 22.4993 33.23 23.0464 33.5793 23.8861C33.9287 24.7258 33.7379 25.6934 33.0959 26.3379C32.9549 26.477 32.7967 26.5983 32.625 26.6979L33.375 27.9968C33.6599 27.8309 33.9228 27.6295 34.1565 27.3966C35.2262 26.3232 35.5444 24.7112 34.9632 23.3119C34.3821 21.9122 33.0154 21 31.5 21H13.5C11.4291 21 9.75 22.6791 9.75 24.75C9.75 26.8209 11.4291 28.5 13.5 28.5Z" fill="white"/>
<path d="M21.75 24H23.25V25.5H21.75V24Z" fill="white"/>
<path d="M24.75 24H26.25V25.5H24.75V24Z" fill="white"/>
<path d="M18.75 24H20.25V25.5H18.75V24Z" fill="white"/>
<path d="M15.75 24H17.25V25.5H15.75V24Z" fill="white"/>
<path d="M12.75 24H14.25V25.5H12.75V24Z" fill="white"/>
<path d="M17.8084 17.5986C17.8622 17.6506 17.9208 17.6957 17.9757 17.7488C18.0695 17.8334 18.1621 17.9198 18.2606 17.9993C18.3408 18.0637 18.424 18.1223 18.5056 18.1831C18.5877 18.2439 18.6851 18.3171 18.7788 18.3794C18.8726 18.4416 18.9777 18.5024 19.0787 18.5625C19.1619 18.6112 19.2439 18.6628 19.33 18.7126C19.4431 18.7723 19.5603 18.8258 19.6764 18.8796C19.7559 18.9166 19.8339 18.9547 19.9152 18.9899C20.0382 19.0411 20.1649 19.0836 20.2902 19.1279C20.3696 19.1558 20.4476 19.1865 20.5286 19.2114C20.6582 19.251 20.7919 19.2817 20.9245 19.3132C21.0054 19.3326 21.0852 19.3568 21.1676 19.3733C21.3123 19.4019 21.4584 19.4205 21.6056 19.4399C21.6807 19.4498 21.7503 19.4648 21.8246 19.4722C22.0495 19.4941 22.2747 19.5059 22.4995 19.5059C22.7244 19.5059 22.9496 19.4941 23.1745 19.4722C23.2495 19.4648 23.3202 19.4498 23.3934 19.4399C23.5436 19.4205 23.6868 19.4019 23.8314 19.3733C23.9142 19.3568 23.9937 19.3326 24.0746 19.3132C24.2072 19.2817 24.3408 19.251 24.4705 19.2114C24.5514 19.1865 24.6294 19.1558 24.7089 19.1279C24.836 19.0836 24.9627 19.0411 25.0839 18.9899C25.1652 18.9562 25.2432 18.9152 25.3226 18.8796C25.4387 18.8258 25.5559 18.7723 25.6691 18.7126C25.7551 18.6661 25.8372 18.6141 25.9203 18.5625C26.0214 18.5024 26.1228 18.4446 26.2202 18.3794C26.3176 18.3142 26.4026 18.249 26.4934 18.1831C26.5839 18.1168 26.6582 18.0637 26.7384 17.9993C26.8369 17.9198 26.9299 17.8334 27.0237 17.7488C27.0783 17.6986 27.1369 17.6536 27.1907 17.5986C27.1962 17.5935 27.1984 17.5876 27.2035 17.5821C29.1745 15.6676 29.7882 12.7489 28.7551 10.2026C27.7221 7.65637 25.2483 5.99048 22.5003 5.99048C19.7522 5.99048 17.2788 7.65637 16.2454 10.2026C15.2123 12.7489 15.8261 15.6676 17.797 17.5821C17.8007 17.5876 17.8029 17.5935 17.8084 17.5986ZM20.9988 12C20.9988 11.1716 21.6704 10.5 22.4988 10.5C23.3272 10.5 23.9988 11.1716 23.9988 12C23.9988 12.8284 23.3272 13.5 22.4988 13.5C21.6704 13.5 20.9988 12.8284 20.9988 12ZM22.4988 15C23.8369 14.9967 25.0747 15.7104 25.742 16.8706L25.6984 16.9028C25.4852 17.0702 25.2597 17.2207 25.0235 17.3529L25.0099 17.361C24.7803 17.4844 24.5419 17.5902 24.2965 17.6781C24.2522 17.6938 24.2086 17.7114 24.1647 17.7261C23.9263 17.8066 23.6824 17.8693 23.4348 17.9136C23.3869 17.9227 23.3374 17.9286 23.2847 17.9363C22.7614 18.0242 22.2271 18.0242 21.7037 17.9363C21.655 17.9286 21.6056 17.9227 21.554 17.9136C21.3064 17.8693 21.0625 17.8066 20.8241 17.7261C20.7798 17.7114 20.7362 17.6938 20.6919 17.6781C20.4469 17.5902 20.2085 17.4844 19.9789 17.361L19.9653 17.3529C19.7288 17.2207 19.5032 17.0702 19.2904 16.9028L19.2468 16.8706C19.9155 15.7075 21.1574 14.9934 22.4988 15ZM22.4988 7.5C24.4566 7.49744 26.2528 8.58618 27.1566 10.3231C28.0604 12.0597 27.9213 14.1555 26.7955 15.7573C26.2726 14.9971 25.5578 14.3884 24.7232 13.9944C25.809 12.7947 25.7474 10.9501 24.5844 9.82507C23.4216 8.70007 21.5759 8.70007 20.4132 9.82507C19.2501 10.9501 19.1886 12.7947 20.2744 13.9944C19.4398 14.3884 18.725 14.9971 18.202 15.7573C17.0763 14.1555 16.9371 12.0597 17.841 10.3231C18.7448 8.58618 20.541 7.49744 22.4988 7.5Z" fill="white"/>
<path d="M23.015 34.9042L22.8964 34.9636C22.246 35.2888 21.8135 35.9311 21.7563 36.6562C21.6996 37.3817 22.0266 38.0833 22.6184 38.5063L27.314 41.8604C27.441 41.9512 27.5934 42 27.7498 42H39.7498C40.1639 42 40.4998 41.6641 40.4998 41.25V33.0802C40.514 31.9606 39.7241 30.992 38.6248 30.7807C37.9703 30.6716 37.3009 30.8565 36.7948 31.2854L36.7498 31.3238C35.8965 30.5577 34.603 30.5577 33.7498 31.3238C33.1294 30.7921 32.2761 30.6229 31.4998 30.8774V26.25C31.5144 25.1304 30.7245 24.1615 29.6248 23.9505C28.9714 23.8399 28.3031 24.023 27.797 24.4508C27.2913 24.8785 26.9994 25.5073 26.9998 26.1698V36.1754L25.0094 34.9808C24.4019 34.6138 23.6486 34.5849 23.015 34.9042ZM27.3649 38.1427C27.5967 38.2811 27.8845 38.2844 28.1193 38.1514C28.354 38.0185 28.4994 37.7698 28.4998 37.5V26.1698C28.4998 25.9475 28.5979 25.7369 28.7682 25.5944C28.9385 25.4516 29.163 25.3919 29.3816 25.4311C29.7562 25.5227 30.0144 25.8647 29.9998 26.25V33C29.9998 33.4141 30.3356 33.75 30.7498 33.75C31.1639 33.75 31.4998 33.4141 31.4998 33C31.4998 32.5858 31.8356 32.25 32.2498 32.25C32.6639 32.25 32.9998 32.5858 32.9998 33C32.9998 33.4141 33.3356 33.75 33.7498 33.75C34.1639 33.75 34.4998 33.4141 34.4998 33C34.4998 32.5858 34.8356 32.25 35.2498 32.25C35.6639 32.25 35.9998 32.5858 35.9998 33C35.9998 33.4141 36.3356 33.75 36.7498 33.75C37.1639 33.75 37.4998 33.4141 37.4998 33C37.4998 32.7799 37.5968 32.5708 37.7645 32.4283C37.9352 32.284 38.1608 32.2225 38.3809 32.2606C38.7555 32.3525 39.0137 32.6949 38.9998 33.0802V40.5H27.9896L23.4896 37.2861C23.3391 37.1781 23.2498 37.0037 23.2498 36.8181C23.2487 36.6009 23.3717 36.4017 23.5662 36.3054L23.6848 36.246C23.8602 36.1571 24.0686 36.1651 24.2367 36.2669L27.3649 38.1427Z" fill="white"/>
</g>
<defs>
<clipPath id="clip0">
<rect width="45" height="45" fill="white"/>
</clipPath>
</defs>
</svg>

<svg width="45" height="45" fill="none" xmlns="http://www.w3.org/2000/svg"><g clip-path="url(#clip0)" fill="#fff"><path d="M42 6v1.5A1.5 1.5 0 0143.5 9v22.5H42V33h1.5v1.5A1.5 1.5 0 0142 36v1.5a3 3 0 003-3V9a3 3 0 00-3-3zM3 37.5h14.742l-1.8 6H14.25V45h16.5v-1.5H17.508l1.8-6h.942V36H3a1.5 1.5 0 01-1.5-1.5V33h24v-1.5h-24V9A1.5 1.5 0 013 7.5V6a3 3 0 00-3 3v25.5a3 3 0 003 3z"/><path d="M6 3a1.5 1.5 0 011.5-1.5h30A1.5 1.5 0 0139 3v27h1.5V3a3 3 0 00-3-3h-30a3 3 0 00-3 3v27H6V3z"/><path d="M7.5 3H9v1.5H7.5V3zm3 0H12v1.5h-1.5V3zm3 0H15v1.5h-1.5V3zm0 25.5h12V27h-12a2.25 2.25 0 010-4.5h18a2.25 2.25 0 011.125 4.198l.75 1.299A3.75 3.75 0 0031.5 21h-18a3.75 3.75 0 000 7.5z"/><path d="M21.75 24h1.5v1.5h-1.5V24zm3 0h1.5v1.5h-1.5V24zm-6 0h1.5v1.5h-1.5V24zm-3 0h1.5v1.5h-1.5V24zm-3 0h1.5v1.5h-1.5V24zm5.058-6.401c.054.052.113.097.168.15.094.084.186.17.285.25.08.065.163.123.245.184.082.06.18.134.273.196.094.063.199.123.3.183.083.05.165.1.251.15.113.06.23.114.346.168.08.037.158.075.24.11.122.051.249.094.374.138.08.028.158.058.239.083.13.04.263.07.395.102.081.02.161.044.244.06.144.029.29.047.438.067.075.01.144.025.219.032a6.964 6.964 0 001.35 0c.075-.007.145-.022.218-.032.15-.02.294-.038.438-.067.083-.016.163-.04.244-.06.132-.031.266-.062.396-.102.08-.024.158-.055.238-.083.127-.044.254-.087.375-.138.081-.034.16-.075.239-.11.116-.054.233-.108.346-.167.086-.047.168-.099.251-.15.101-.06.203-.118.3-.184.098-.065.183-.13.273-.196.09-.066.165-.12.245-.184.099-.08.192-.166.286-.25.054-.05.113-.095.167-.15l.012-.017a6.75 6.75 0 10-9.406 0l.011.017zM20.998 12a1.5 1.5 0 113 0 1.5 1.5 0 01-3 0zm1.5 3a3.73 3.73 0 013.244 1.87l-.044.033a5.225 5.225 0 01-.675.45l-.013.008c-.23.123-.468.23-.713.317l-.132.048c-.239.08-.483.143-.73.188-.048.009-.098.015-.15.022a4.772 4.772 0 01-1.581 0c-.049-.007-.098-.013-.15-.022a5.075 5.075 0 01-.73-.188l-.132-.048a5.253 5.253 0 01-.713-.317l-.014-.008a5.177 5.177 0 01-.675-.45l-.043-.032A3.73 3.73 0 0122.499 15zm0-7.5a5.243 5.243 0 014.297 8.257 5.221 5.221 0 00-2.072-1.763 3 3 0 10-4.449 0 5.222 5.222 0 00-2.072 1.763A5.242 5.242 0 0122.499 7.5zm.517 27.404l-.119.06a2.075 2.075 0 00-.278 3.542l4.696 3.354a.75.75 0 00.436.14h12a.75.75 0 00.75-.75v-8.17a2.312 2.312 0 00-1.875-2.3 2.257 2.257 0 00-1.83.505l-.045.039a2.245 2.245 0 00-3 0 2.339 2.339 0 00-2.25-.447V26.25a2.31 2.31 0 00-1.875-2.3A2.25 2.25 0 0027 26.17v10.005l-1.99-1.194a2.062 2.062 0 00-1.995-.077zm4.35 3.239A.75.75 0 0028.5 37.5V26.17a.75.75 0 01.882-.739.811.811 0 01.618.819V33a.75.75 0 001.5 0 .75.75 0 011.5 0 .75.75 0 001.5 0 .75.75 0 011.5 0 .75.75 0 001.5 0 .75.75 0 01.88-.74.813.813 0 01.62.82v7.42H27.99l-4.5-3.214a.576.576 0 01.076-.98l.119-.06a.569.569 0 01.552.02l3.128 1.877z"/></g><defs><clipPath id="clip0"><path fill="#fff" d="M0 0h45v45H0z"/></clipPath></defs></svg>
